!!!OTL@@FUR: E tu Pieri cj&ocirc;l Anute
!!!OTL@IT: E tu Pietro sposa Annetta
!!!OTL@EN: Pietro, you marry Annetta
**kern
*clefG2
*k[]
*C:
*M3/4
*MM50
*>[A]
*>A
8a
8b
=1
4cc
4dd
8cc
8b
=2
4cc
4a
8dd
8dd
=3||
*M2/4
8cc
8cc
8b
8b
=4
4a
8a
8b
=5||
*M3/4
4cc
4dd
8cc
8b
=6
4cc
4a
8dd
8dd
=7||
*M2/4
8cc
8cc
8b
8b
=8
2a
==
*-
!!!ARE: Friuli
!!!ENC: Kelly Leistikow
!!!END: 2002/03/07
!!!ref: @{OTL@@FUR}/@{OTL@EN}
